X:1
T:Habana, 10.10.10.10
T:Ira David Sankey, 1894
T:Habana, 10.10.10.10
T:Public Domain
C:Ira David Sankey, 1894
Z:Public Domain
%%score 1 ( 2 3 )
L:1/8
M:3/4
K:Ab
V:1 treble 
V:2 bass 
V:3 bass 
V:1
 [Ec]2 [Ec]2 [Ec]2 | [Ec]3 [CA] [CE]2 | [Ed]2 [Ed]2 [Ed]2 | [Ec]6 | [DF]2 [EG]2 [FA]2 | %5
 [EA]3 [EB] [Ec]2 | [Ec]2 [EB]2 [=DA]2 | [EB]6 | [Ec]2 [Ec]2 [Ec]2 | [Ec]3 [CA] [CE]2 | %10
 [Ed]2 [Ed]2 [Ed]2 | [Ec]6 | [Ae]2 [Ge]2 [_Ge]2 | [Fe]3 [Fd] [DB]2 | [Ec]2 [EA]2 [EB]2 | [EA]6 |] %16
V:2
 [A,,A,]2 [A,,A,]2 [A,,A,]2 | [A,,A,]3 [A,,E,] [A,,A,]2 | [E,G,]2 [F,A,]2 [G,B,]2 | A,6 | %4
 [D,A,]2 [D,A,]2 [D,A,]2 | [C,A,]3 [E,G,] A,2 | A,2 [G,B,]2 [F,B,]2 | [E,G,]6 | %8
 [A,,A,]2 [A,,A,]2 [A,,A,]2 | [A,,A,]3 [A,,E,] [A,,A,]2 | [E,G,]2 [F,A,]2 [G,B,]2 | A,6 | %12
 [C,A,]2 [C,A,]2 [C,A,]2 | [D,A,]3 [D,A,] [D,F,]2 | [E,A,]2 [E,C]2 [E,D]2 | [A,C]6 |] %16
V:3
 x6 | x6 | x6 | A,6 | x6 | x4 A,2 | A,2 x4 | x6 | x6 | x6 | x6 | A,6 | x6 | x6 | x6 | x6 |] %16

